!!!OTL: Fuer Gott und Vaterland.
!!!OTL-incipit: AUF TAPFERE BRUEDER
!!!COM: H. G. Naegeli
!!!ARE: Europa, Mitteleuropa, Deutschland
!!!SCT: F0401
!!!TXL: @@DE
!!!YEM: Copyright 1995, estate of Helmut Schaffrath.
**kern	**text
*ICvox	*
*M4/4	*
*met(c)	*
*k[b-e-a-]	*
*E-:	*
!LO:TX:a:t=Kräftig.	!
{4b-	1._Auf,
=1	=1
4ee-	ta-
8.ee-L	-pfre
16ddJ	.
4ee-	Brüder,
4b-	.
=2	=2
4cc/	ſammelt
8.cc/L	.
16b-J	.
4cc/}	euch
{4g	mit
=3	=3
4.a-	Waffen
8g	.
8.a-L	in
16fJ	.
8.gL	der
16e-J	.
=4	=4
2.b-/}	Hand!
{4ee-/	Wir
=5	=5
4.dd/	ü-
8cc/	-ben
4b-/	uns
4an	im
=6	=6
4b-/	Kampf
8.b-/L	und
16anJ	.
4b-/}	Streit;
{4ee-/	ʒu
=7	=7
4.dd/	käm-
8cc/	-pfen
4b-/	ſind
4an	wir
=8	=8
4b-/	ſtets
8.b-/L	be-
16anJ	.
4b-/}	-reit
{4g	für
=9	=9
2a-	Gott
2f	und
=10	=10
4.b-/	Va-
8a-	-terland,
4g}	.
{4b-/	für
=11	=11
4ee-/	Gott
8.a-L	und
16b-J	.
4b-/	Va-
4b-/	-ter-
=12	=12
2e-	-land!
4r}	.
==	==
!!!AGN: Vaterlands -, Heimat - Lied, nationalistisch, Krieg
!!!ONB: ESAC (Essen Associative Code) Database: FINK
!!!AMT: simple quadruple
!!!AIN: vox
!!!EED: Helmut Schaffrath
!!!EEV: 1.0
!!Text: C. G. Hering
!!!GTL: Vaterlands- und Heimathslieder.
!!!source: Musikalischer Hausschatz der Deutschen. Eine Sammlung von über 1000 Liedern und Gesängen mit Singstimmen und Klavierbegleitung. Leipzig, Litterarisches Verlags-Haus.
!!!page: 245
!!!ENC: Anna Maria Matuszewska
!!!EEV: 2025/03/14
*-	*-
